assets/tik-tok.svg

<svg id="Capa_1" enable-background="new 0 0 512 512" height="512" viewBox="0 0 512 512" width="512" xmlns="http://www.w3.org/2000/svg"><g><path d="m480.32 128.39c-29.22 0-56.18-9.68-77.83-26.01-24.83-18.72-42.67-46.18-48.97-77.83-1.56-7.82-2.4-15.89-2.48-24.16h-83.47v228.08l-.1 124.93c0 33.4-21.75 61.72-51.9 71.68-8.75 2.89-18.2 4.26-28.04 3.72-12.56-.69-24.33-4.48-34.56-10.6-21.77-13.02-36.53-36.64-36.93-63.66-.63-42.23 33.51-76.66 75.71-76.66 8.33 0 16.33 1.36 23.82 3.83v-62.34-22.41c-7.9-1.17-15.94-1.78-24.07-1.78-46.19 0-89.39 19.2-120.27 53.79-23.34 26.14-37.34 59.49-39.5 94.46-2.83 45.94 13.98 89.61 46.58 121.83 4.79 4.73 9.82 9.12 15.08 13.17 27.95 21.51 62.12 33.17 98.11 33.17 8.13 0 16.17-.6 24.07-1.77 33.62-4.98 64.64-20.37 89.12-44.57 30.08-29.73 46.7-69.2 46.88-111.21l-.43-186.56c14.35 11.07 30.04 20.23 46.88 27.34 26.19 11.05 53.96 16.65 82.54 16.64v-60.61-22.49c.02.02-.22.02-.24.02z"/></g></svg>

<?xml version="1.0" encoding="UTF-8" standalone="no"?>
<!DOCTYPE svg PUBLIC "-//W3C//DTD SVG 1.1//EN" "http://www.w3.org/Graphics/SVG/1.1/DTD/svg11.dtd">
<svg width="100%" height="100%" viewBox="0 0 512 512" version="1.1" xmlns="http://www.w3.org/2000/svg" xmlns:xlink="http://www.w3.org/1999/xlink" xml:space="preserve" xmlns:serif="http://www.serif.com/" style="fill-rule:evenodd;clip-rule:evenodd;stroke-linejoin:round;stroke-miterlimit:2;">
    <g>
        <path d="M480.32,128.39C451.1,128.39 424.14,118.71 402.49,102.38C377.66,83.66 359.82,56.2 353.52,24.55C351.96,16.73 351.12,8.66 351.04,0.39L267.57,0.39L267.57,228.47L267.47,353.4C267.47,386.8 245.72,415.12 215.57,425.08C206.82,427.97 197.37,429.34 187.53,428.8C174.97,428.11 163.2,424.32 152.97,418.2C131.2,405.18 116.44,381.56 116.04,354.54C115.41,312.31 149.55,277.88 191.75,277.88C200.08,277.88 208.08,279.24 215.57,281.71L215.57,196.96C207.67,195.79 199.63,195.18 191.5,195.18C145.31,195.18 102.11,214.38 71.23,248.97C47.89,275.11 33.89,308.46 31.73,343.43C28.9,389.37 45.71,433.04 78.31,465.26C83.1,469.99 88.13,474.38 93.39,478.43C121.34,499.94 155.51,511.6 191.5,511.6C199.63,511.6 207.67,511 215.57,509.83C249.19,504.85 280.21,489.46 304.69,465.26C334.77,435.53 351.39,396.06 351.57,354.05L351.14,167.49C365.49,178.56 381.18,187.72 398.02,194.83C424.21,205.88 451.98,211.48 480.56,211.47L480.56,128.37C480.58,128.39 480.34,128.39 480.32,128.39Z" style="fill:white;fill-rule:nonzero;"/>
    </g>
</svg>
